icons/fill-new-other-prize-trophy-1.svg

<svg xmlns="http://www.w3.org/2000/svg" width="32px" height="32px" viewBox="0 0 32 32" version="1.1">
    <title>fill-new-other-prize-trophy-1</title>
    <g id="fill-new-other-prize-trophy-1" stroke-width="1" fill-rule="evenodd">
        <path d="M23,2 C23.5522847,2 24,2.44771525 24,3 L24,6 L28,6 C28.5522847,6 29,6.44771525 29,7 C29,12.1361366 27.2586129,15.2240764 23.7725893,15.8972947 C22.9983495,19.0845142 20.3143721,21.5244054 17.0009551,21.9379871 L17,28 L21,28 C22.3333333,28 22.3333333,30 21,30 L11,30 L10.8668252,29.9930296 C9.66825208,29.8644471 9.71264368,28 11,28 L15,28 L15.0000487,21.9381123 C11.6862236,21.5249048 9.00181568,19.084915 8.22644235,15.8977601 C4.74138705,15.2240764 3,12.1361366 3,7 C3,6.44771525 3.44771525,6 4,6 L8,6 L8,3 C8,2.44771525 8.44771525,2 9,2 L23,2 Z M8,8 L5.024,8 L5.03721569,8.23439182 C5.23522349,11.3499102 6.2232922,13.1290598 7.99971049,13.7648662 L8,8 Z M26.9627843,8.23439182 L26.975,8 L24,8 L24.0008792,13.764655 C25.7769265,13.128666 26.7647984,11.3495654 26.9627843,8.23439182 Z" id="&#24418;&#29366;" fill-rule="nonzero" />
    </g>
</svg>

<svg xmlns="http://www.w3.org/2000/svg" viewBox="0 0 32 32"><path fill="currentColor" d="M23 2a1 1 0 0 1 1 1v3h4a1 1 0 0 1 1 1c0 5.136-1.741 8.224-5.227 8.897A8.005 8.005 0 0 1 17 21.938L17 28h4c1.333 0 1.333 2 0 2H11l-.133-.007C9.668 29.864 9.713 28 11 28h4v-6.062a8.007 8.007 0 0 1-6.774-6.04C4.741 15.224 3 12.136 3 7a1 1 0 0 1 1-1h4V3a1 1 0 0 1 1-1zM8 8H5.024l.013.234C5.235 11.35 6.223 13.13 8 13.764zm18.963.234L26.975 8H24v5.765c1.777-.636 2.765-2.415 2.963-5.53"/></svg>
